X:1
T:Heather Bell Hornpipe, The
T:Heather Bell Hornpipe, The
T:Robert Whinham
C:Robert Whinham
L:1/8
M:4/4
K:G
V:1 treble 
V:1
 Bc | d^cde dBcA | GFGB AFDC | B,>DG>B C>EG>c | E>Gc>e d2 ef | (3gba (3gfe (3dgf (3edc | %6
 (3Bed (3cBA GFED | B,>DG>B E>cA>F | [B,G]2 [B,G]2 [B,G]2 :: fg | a>d d2 B>eg>a | b>d d2 B>dg>b | %12
 c'>a a b>g g2 | (3aba (3gfe d2 Bd | egdg cgBg | egdg cgBg | egBe dcAB | G2 [Bg]2 [Bg]2 fg | %18
 ad^cd Bdga | bd^cd Bdgb | c'a^ga b=gfg | (3aba (3gfe d2 ef | (3gbg (3faf (3ege (3def | %23
 (3gbg (3faf (3ege (3def | (3gba (3gfe (3ded (3cBA | G2 [Bg]2 [Bg]2 || %26

